X: 6808
T: Charleston, The
R: reel
M: 4/4
K: Amajor
c2cB cBAB|cABA FADF|EAAG ABca|
fdBA GBed|BccB cBAB|cABA FADF|
EAAG Acfc|1 ecBc A3B:|2 ecBc A3z||
|:bafa eAcf|eAce f3g|ae~e2 faec|dBcA Bfed|
BccB cBAB|cABA FADF|EAAG Acfc|ecBc A3z:|

